web/public/images/diecut.svg

<svg viewBox="0 0 112 112" fill="none" xmlns="http://www.w3.org/2000/svg">
<rect width="112" height="112" />
<g filter="url(#filter0_d)">
<path fill-rule="evenodd" clip-rule="evenodd" d="M48.0242 2.50355C44.0404 4.50827 35.6424 8.41127 31.0929 11.5248C26.5433 14.6384 27.109 17.539 25.1171 19.5437C23.1252 21.5485 17.1494 26.5603 13.1655 29.5674C9.18168 32.5745 10.1776 40.5934 9.18168 43.6005C8.18572 46.6076 6.19379 53.6241 5.19783 56.6312C4.20187 59.6383 7.18975 63.6478 9.18168 67.6572C11.1736 71.6667 16.1534 82.6927 18.1453 86.7021C20.1373 90.7116 26.113 88.7069 31.0929 92.7163C36.0727 96.7258 43.0444 101.738 48.0242 104.745C53.004 107.752 54.996 107.752 59.9758 104.745C64.9556 101.738 71.9273 96.7258 76.9071 92.7163C81.887 88.7069 87.8627 90.7116 89.8547 86.7021C91.8466 82.6927 96.8264 71.6667 98.8183 67.6572C100.81 63.6478 103.798 59.6383 102.802 56.6312C101.806 53.6241 99.8143 46.6076 98.8183 43.6005C97.8224 40.5934 98.8183 32.5745 94.8345 29.5674C90.8506 26.5603 86.2262 22.7315 82.8829 19.5437C79.5396 16.356 80.891 14.5319 76.9071 11.5248C72.9233 8.51773 63.9596 4.50827 59.9758 2.50355C55.9919 0.498818 52.0081 0.498818 48.0242 2.50355Z" fill="white"/>
</g>
<path fill-rule="evenodd" clip-rule="evenodd" d="M33.9574 19.8798L52.5979 32.6037C53.0186 32.8839 53.5101 33.0373 54.0144 33.0459C54.5195 33.0422 55.0122 32.8884 55.4308 32.6037L74.0855 19.837C74.8103 19.3181 75.21 18.4529 75.1374 17.5603C75.0647 16.6676 74.5304 15.8796 73.7314 15.4864L55.0909 6.25732C54.3838 5.91423 53.56 5.91423 52.8529 6.25732L34.2691 15.4864C33.4556 15.8817 32.9143 16.685 32.8499 17.5922C32.7856 18.4995 33.208 19.3721 33.9574 19.8798ZM60.3459 36.5977C60.3474 37.4415 60.7604 38.2307 61.4507 38.7088L76.3943 48.9222C77.3509 49.5817 78.6309 49.4993 79.4963 48.7225L92.0319 37.5106C92.5906 37.0115 92.9008 36.2887 92.8789 35.5369C92.8571 34.7851 92.5053 34.0818 91.9186 33.6165L79.9496 24.045C79.0796 23.3539 77.8659 23.3078 76.9467 23.9309L61.4507 34.5294C60.7726 34.9989 60.3611 35.7691 60.3459 36.5977ZM23.1783 50.4912C23.7822 51.0337 24.0927 51.834 24.014 52.6452C23.9355 53.461 23.4643 54.1861 22.7533 54.5851L13.8297 59.9343C12.9251 60.475 11.783 60.397 10.9591 59.7383C10.1353 59.0797 9.80082 57.9771 10.1186 56.9673L13.4189 46.5828C13.6778 45.76 14.3341 45.126 15.1611 44.8996C15.9876 44.6591 16.8788 44.8699 17.5125 45.4559L23.1783 50.4912ZM71.5784 51.5753L55.445 40.5347C54.5876 39.9578 53.4695 39.9578 52.6121 40.5347L36.4787 51.5753C35.837 52.0195 35.4305 52.7332 35.3739 53.5153C35.3321 54.3028 35.6442 55.0675 36.2238 55.5979L52.343 70.0192C52.8078 70.4338 53.4076 70.6622 54.0285 70.6611C54.6493 70.6609 55.2486 70.4327 55.7141 70.0192L71.8333 55.5979C72.4146 55.0697 72.7228 54.3019 72.669 53.5153C72.624 52.7333 72.2211 52.0166 71.5784 51.5753ZM28.5466 48.7225L16.0252 37.5106C15.4618 36.9988 15.1509 36.2631 15.1753 35.4994C15.1889 34.7466 15.5373 34.0398 16.1243 33.5737L28.0933 23.9452C28.9694 23.256 30.1855 23.21 31.1104 23.8311L46.5922 34.4295C47.3107 34.9007 47.7441 35.7057 47.7441 36.5692C47.7441 37.4327 47.3107 38.2376 46.5922 38.7088L31.6628 48.9222C30.7003 49.5788 29.4186 49.4967 28.5466 48.7225ZM92.8393 64.827L80.0912 57.1955C79.1445 56.625 77.9394 56.7405 77.1167 57.4808L61.5357 71.3886C60.8785 71.9756 60.5698 72.8633 60.7199 73.7349C60.8699 74.6066 61.4572 75.3379 62.2723 75.6679L83.8873 84.4263C84.1838 84.5494 84.5015 84.6124 84.8222 84.6117C85.8254 84.6149 86.736 84.0221 87.1452 83.0997L93.845 68.0935C94.3903 66.906 93.956 65.4955 92.8393 64.827ZM94.6099 46.5828L97.9102 56.9673H97.8819C98.1259 57.744 97.9872 58.5915 97.5086 59.2483C97.0299 59.9051 96.2687 60.2924 95.4597 60.2909C95.0058 60.2924 94.5602 60.1691 94.1708 59.9343L85.2329 54.5851C84.5366 54.1777 84.0817 53.4534 84.0148 52.6452C83.9313 51.8334 84.2426 51.031 84.8505 50.4912L90.5163 45.4416C91.1564 44.868 92.0409 44.6587 92.8676 44.8853C93.6941 45.1215 94.3482 45.7587 94.6099 46.5828ZM47.3287 73.728C47.4811 72.8599 47.1755 71.9744 46.5214 71.3886L30.9404 57.4808C30.1177 56.7405 28.9126 56.625 27.9659 57.1955L15.2178 64.827C14.114 65.4985 13.6773 66.8911 14.198 68.0793L20.9119 83.0854C21.4682 84.3366 22.9063 84.9222 24.1698 84.412L45.7706 75.6536C46.5859 75.3266 47.1753 74.5982 47.3287 73.728ZM54.9776 78.0073L72.3149 85.0254C73.1626 85.3882 73.7483 86.1855 73.8447 87.108C73.9544 88.042 73.5396 88.96 72.7682 89.4901L55.4167 101.544C55.0008 101.836 54.5072 101.995 54.0002 102C53.4937 101.992 53.0008 101.833 52.5838 101.544L35.2464 89.4901C34.4722 88.9613 34.0523 88.0443 34.1557 87.108C34.2715 86.1758 34.8782 85.3794 35.7422 85.0254L53.0795 78.0073C53.6892 77.7642 54.3679 77.7642 54.9776 78.0073Z" fill="#BF4722"/>
<defs>
<filter id="filter0_d" x="3" y="1" width="102" height="110" filterUnits="userSpaceOnUse" color-interpolation-filters="sRGB">
<feFlood flood-opacity="0" result="BackgroundImageFix"/>
<feColorMatrix in="SourceAlpha" type="matrix" values="0 0 0 0 0 0 0 0 0 0 0 0 0 0 0 0 0 0 127 0"/>
<feOffset dy="2"/>
<feGaussianBlur stdDeviation="1"/>
<feColorMatrix type="matrix" values="0 0 0 0 0 0 0 0 0 0 0 0 0 0 0 0 0 0 0.202934 0"/>
<feBlend mode="normal" in2="BackgroundImageFix" result="effect1_dropShadow"/>
<feBlend mode="normal" in="SourceGraphic" in2="effect1_dropShadow" result="shape"/>
</filter>
</defs>
</svg>

<svg fill="none" viewBox="0 0 112 112" xmlns="http://www.w3.org/2000/svg"><filter id="a" color-interpolation-filters="sRGB" filterUnits="userSpaceOnUse" height="110" width="102" x="3" y="1"><feFlood flood-opacity="0" result="BackgroundImageFix"/><feColorMatrix in="SourceAlpha" values="0 0 0 0 0 0 0 0 0 0 0 0 0 0 0 0 0 0 127 0"/><feOffset dy="2"/><feGaussianBlur stdDeviation="1"/><feColorMatrix values="0 0 0 0 0 0 0 0 0 0 0 0 0 0 0 0 0 0 0.202934 0"/><feBlend in2="BackgroundImageFix" result="effect1_dropShadow"/><feBlend in="SourceGraphic" in2="effect1_dropShadow" result="shape"/></filter><path d="M0 0h112v112H0z"/><g filter="url(#a)"><path clip-rule="evenodd" d="M48.024 2.504c-3.984 2.004-12.382 5.907-16.931 9.02-4.55 3.114-3.984 6.015-5.976 8.02S17.15 26.56 13.166 29.567C9.182 32.574 10.178 40.593 9.182 43.6c-.996 3.008-2.988 10.024-3.984 13.031s1.992 7.017 3.984 11.026c1.992 4.01 6.971 15.036 8.963 19.045 1.992 4.01 7.968 2.005 12.948 6.014 4.98 4.01 11.951 9.022 16.931 12.029s6.972 3.007 11.952 0 11.951-8.02 16.931-12.029c4.98-4.01 10.956-2.004 12.948-6.014 1.992-4.01 6.971-15.035 8.963-19.045 1.992-4.01 4.98-8.019 3.984-11.026s-2.988-10.023-3.984-13.03c-.996-3.008 0-11.027-3.984-14.034-3.983-3.007-8.608-6.836-11.951-10.023-3.343-3.188-1.992-5.012-5.976-8.02-3.984-3.006-12.947-7.016-16.931-9.02-3.984-2.005-7.968-2.005-11.952 0z" fill="#fff" fill-rule="evenodd"/></g><path clip-rule="evenodd" d="m33.957 19.88 18.64 12.724c.422.28.913.433 1.417.442a2.551 2.551 0 0 0 1.417-.442l18.654-12.767a2.546 2.546 0 0 0 1.052-2.277 2.54 2.54 0 0 0-1.406-2.074l-18.64-9.229a2.562 2.562 0 0 0-2.238 0l-18.584 9.23a2.54 2.54 0 0 0-1.42 2.105 2.545 2.545 0 0 0 1.108 2.288zm26.389 16.718a2.573 2.573 0 0 0 1.105 2.11l14.943 10.214c.957.66 2.237.577 3.102-.2l12.536-11.211a2.547 2.547 0 0 0-.113-3.895l-11.97-9.571a2.535 2.535 0 0 0-3.002-.114L61.45 34.529a2.572 2.572 0 0 0-1.105 2.069zM23.178 50.49c.604.543.915 1.343.836 2.154a2.497 2.497 0 0 1-1.26 1.94l-8.924 5.35a2.521 2.521 0 0 1-2.87-.197 2.564 2.564 0 0 1-.841-2.77l3.3-10.385A2.53 2.53 0 0 1 15.16 44.9a2.452 2.452 0 0 1 2.351.556zm48.4 1.084-16.133-11.04a2.535 2.535 0 0 0-2.833 0L36.48 51.575a2.586 2.586 0 0 0-1.105 1.94c-.042.788.27 1.553.85 2.083l16.119 14.421a2.525 2.525 0 0 0 1.685.642c.621 0 1.22-.228 1.686-.642l16.12-14.421c.58-.528.889-1.296.835-2.083a2.529 2.529 0 0 0-1.09-1.94zm-43.031-2.852L16.025 37.51a2.605 2.605 0 0 1-.85-2.012c.014-.752.362-1.46.95-1.925l11.968-9.629a2.563 2.563 0 0 1 3.017-.114L46.592 34.43c.719.472 1.152 1.277 1.152 2.14s-.433 1.669-1.152 2.14l-14.93 10.213a2.536 2.536 0 0 1-3.115-.2zm64.292 16.104-12.748-7.631a2.507 2.507 0 0 0-2.974.285L61.536 71.389a2.563 2.563 0 0 0 .736 4.279l21.615 8.758c.297.123.614.186.935.186a2.535 2.535 0 0 0 2.323-1.512l6.7-15.006a2.563 2.563 0 0 0-1.006-3.267zm1.77-18.244 3.301 10.384h-.028a2.568 2.568 0 0 1-.373 2.281 2.53 2.53 0 0 1-3.338.686l-8.938-5.349a2.484 2.484 0 0 1-1.218-1.94 2.534 2.534 0 0 1 .835-2.154l5.666-5.05a2.522 2.522 0 0 1 2.352-.556c.826.236 1.48.874 1.742 1.698zM47.33 73.728a2.55 2.55 0 0 0-.808-2.34l-15.58-13.907a2.507 2.507 0 0 0-2.975-.286l-12.748 7.632a2.591 2.591 0 0 0-1.02 3.252l6.714 15.006a2.529 2.529 0 0 0 3.258 1.327l21.6-8.758a2.55 2.55 0 0 0 1.559-1.926zm7.649 4.28 17.337 7.017a2.552 2.552 0 0 1 1.53 2.083 2.532 2.532 0 0 1-1.077 2.382l-17.351 12.054c-.416.292-.91.451-1.417.456-.506-.008-1-.167-1.416-.456L35.246 89.49a2.546 2.546 0 0 1-1.09-2.382 2.594 2.594 0 0 1 1.586-2.083l17.338-7.018a2.561 2.561 0 0 1 1.898 0z" fill="#bf4722" fill-rule="evenodd"/></svg>
